img/logos/nodejs-icon.svg

<?xml version="1.0" encoding="UTF-8" standalone="no"?>
<svg width="256px" height="282px" viewBox="0 0 256 282" version="1.1" xmlns="http://www.w3.org/2000/svg" xmlns:xlink="http://www.w3.org/1999/xlink" preserveAspectRatio="xMinYMin meet">
	<g fill="#8CC84B">
		<path d="M116.504151,3.58037736 C123.46566,-0.404528302 132.53434,-0.422641509 139.489811,3.58037736 C174.484528,23.3539623 209.491321,43.0973585 244.48,62.8830189 C251.061132,66.5901887 255.462642,73.9139623 255.396226,81.4973585 L255.396226,200.464906 C255.444528,208.362264 250.608302,215.861132 243.664906,219.483774 C208.784906,239.148679 173.923019,258.837736 139.049057,278.502642 C131.942642,282.566038 122.69283,282.252075 115.809811,277.856604 C105.352453,271.794717 94.8769811,265.763019 84.4196226,259.70717 C82.2822642,258.433208 79.8732075,257.418868 78.3637736,255.347925 C79.6981132,253.548679 82.0830189,253.325283 84.0211321,252.540377 C88.3864151,251.151698 92.3954717,248.923774 96.4045283,246.762264 C97.4188679,246.067925 98.6566038,246.333585 99.6286792,246.955472 C108.570566,252.081509 117.433962,257.358491 126.406038,262.436226 C128.32,263.541132 130.258113,262.073962 131.89434,261.162264 C166.122264,241.817358 200.392453,222.544906 234.61434,203.193962 C235.882264,202.584151 236.582642,201.237736 236.48,199.849057 C236.504151,160.603774 236.486038,121.352453 236.492075,82.1071698 C236.636981,80.5313208 235.725283,79.0822642 234.300377,78.4362264 C199.541132,58.8618868 164.8,39.2573585 130.046792,19.6769811 C128.803019,18.8316981 127.196981,18.8256604 125.953208,19.6709434 C91.2,39.2573585 56.4649057,58.88 21.7116981,78.4543396 C20.2928302,79.1003774 19.3388679,80.525283 19.5079245,82.1071698 C19.5139623,121.352453 19.5079245,160.603774 19.5079245,199.855094 C19.3871698,201.243774 20.1358491,202.56 21.3977358,203.157736 C30.6716981,208.416604 39.9577358,213.639245 49.2377358,218.88 C54.4664151,221.693585 60.8845283,223.366038 66.6445283,221.210566 C71.7283019,219.38717 75.290566,214.200755 75.1939623,208.803019 C75.2422642,169.78717 75.1698113,130.765283 75.2301887,91.7554717 C75.1033962,90.0226415 76.7456604,88.5916981 78.4301887,88.754717 C82.8860377,88.7245283 87.3479245,88.6943396 91.8037736,88.7667925 C93.6633962,88.7245283 94.9433962,90.5901887 94.7139623,92.3350943 C94.6958491,131.598491 94.7622642,170.861887 94.6837736,210.125283 C94.6958491,220.588679 90.3969811,231.975849 80.7184906,237.095849 C68.7939623,243.272453 54.0558491,241.962264 42.2762264,236.039245 C32.0784906,230.949434 22.3456604,224.941887 12.3290566,219.489811 C5.36754717,215.885283 0.555471698,208.356226 0.603773585,200.464906 L0.603773585,81.4973585 C0.531320755,73.7569811 5.10792453,66.3003774 11.8943396,62.6475472 C46.7683019,42.9645283 81.6362264,23.269434 116.504151,3.58037736 L116.504151,3.58037736 Z"></path>
		<path d="M146.928302,85.989434 C162.137358,85.0113208 178.421132,85.4098113 192.108679,92.9026415 C202.704906,98.6445283 208.579623,110.695849 208.766792,122.469434 C208.470943,124.057358 206.810566,124.93283 205.295094,124.824151 C200.881509,124.818113 196.467925,124.884528 192.05434,124.793962 C190.182642,124.866415 189.095849,123.139623 188.860377,121.485283 C187.592453,115.852075 184.519245,110.273208 179.218113,107.556226 C171.079245,103.480755 161.642264,103.686038 152.766792,103.770566 C146.288302,104.114717 139.320755,104.676226 133.832453,108.486038 C129.618113,111.372075 128.338113,117.198491 129.841509,121.889811 C131.260377,125.258868 135.148679,126.34566 138.330566,127.347925 C156.661132,132.141887 176.084528,131.664906 194.064906,137.97434 C201.509434,140.546415 208.790943,145.54566 211.338868,153.340377 C214.671698,163.78566 213.210566,176.271698 205.778113,184.658113 C199.752453,191.559245 190.973585,195.314717 182.218868,197.355472 C170.572075,199.951698 158.484528,200.018113 146.656604,198.864906 C135.535094,197.596981 123.960755,194.674717 115.375094,187.097358 C108.033208,180.721509 104.446792,170.789434 104.803019,161.201509 C104.887547,159.583396 106.499623,158.45434 108.051321,158.58717 C112.495094,158.550943 116.938868,158.538868 121.382642,158.593208 C123.157736,158.466415 124.473962,160 124.564528,161.672453 C125.38566,167.04 127.402264,172.673208 132.081509,175.855094 C141.113962,181.681509 152.446792,181.283019 162.789434,181.446038 C171.356981,181.06566 180.975094,180.950943 187.966792,175.287547 C191.655849,172.057358 192.748679,166.653585 191.752453,162.004528 C190.671698,158.08 186.566038,156.250566 183.04,155.055094 C164.944906,149.331321 145.304151,151.408302 127.384151,144.935849 C120.108679,142.363774 113.074717,137.503396 110.279245,130.028679 C106.378868,119.450566 108.166038,106.366792 116.377358,98.2641509 C124.383396,90.2037736 135.939623,87.1003774 146.928302,85.989434 L146.928302,85.989434 Z"></path>
	</g>
</svg>

<svg width="256" height="282" viewBox="0 0 256 282" xmlns="http://www.w3.org/2000/svg" preserveAspectRatio="xMinYMin meet"><g fill="#8CC84B"><path d="M116.504 3.58c6.962-3.985 16.03-4.003 22.986 0 34.995 19.774 70 39.517 104.99 59.303 6.58 3.707 10.983 11.03 10.916 18.614v118.968c.05 7.897-4.788 15.396-11.73 19.02-34.88 19.664-69.743 39.353-104.617 59.018-7.107 4.063-16.357 3.75-23.24-.646-10.458-6.062-20.933-12.094-31.39-18.15-2.138-1.274-4.547-2.288-6.056-4.36 1.334-1.798 3.72-2.022 5.657-2.807 4.366-1.388 8.375-3.616 12.385-5.778 1.014-.694 2.252-.428 3.224.193 8.94 5.127 17.804 10.403 26.776 15.48 1.914 1.106 3.852-.36 5.488-1.273 34.228-19.345 68.498-38.617 102.72-57.968 1.268-.61 1.97-1.956 1.866-3.345.024-39.246.006-78.498.012-117.743.145-1.576-.767-3.025-2.192-3.67-34.76-19.575-69.5-39.18-104.253-58.76-1.244-.845-2.85-.85-4.094-.006C91.2 39.258 56.465 58.88 21.713 78.455c-1.42.646-2.374 2.07-2.205 3.653.006 39.245 0 78.497 0 117.748-.12 1.39.628 2.705 1.89 3.303 9.274 5.26 18.56 10.48 27.84 15.722 5.228 2.814 11.647 4.486 17.407 2.33 5.083-1.823 8.646-7.01 8.55-12.407.047-39.016-.025-78.038.035-117.048-.127-1.732 1.516-3.163 3.2-3 4.456-.03 8.918-.06 13.374.012 1.86-.042 3.14 1.823 2.91 3.568-.018 39.263.048 78.527-.03 117.79.012 10.464-4.287 21.85-13.966 26.97-11.924 6.177-26.662 4.867-38.442-1.056-10.198-5.09-19.93-11.098-29.947-16.55C5.367 215.885.554 208.356.603 200.465V81.497c-.073-7.74 4.504-15.197 11.29-18.85C46.768 42.966 81.636 23.27 116.504 3.58z"/><path d="M146.928 85.99c15.21-.98 31.493-.58 45.18 6.913 10.597 5.742 16.472 17.793 16.66 29.566-.297 1.587-1.957 2.463-3.473 2.354-4.413-.006-8.827.06-13.24-.03-1.872.072-2.96-1.654-3.195-3.31-1.268-5.632-4.34-11.21-9.642-13.928-8.14-4.075-17.576-3.87-26.45-3.785-6.48.345-13.447.906-18.936 4.716-4.214 2.886-5.494 8.712-3.99 13.404 1.418 3.37 5.307 4.456 8.49 5.458 18.33 4.794 37.753 4.317 55.733 10.626 7.444 2.572 14.726 7.572 17.274 15.366 3.332 10.446 1.87 22.932-5.562 31.318-6.026 6.9-14.804 10.657-23.56 12.697-11.646 2.597-23.733 2.663-35.56 1.51-11.123-1.268-22.697-4.19-31.283-11.768-7.342-6.375-10.928-16.308-10.572-25.895.085-1.62 1.697-2.748 3.248-2.615 4.445-.036 8.89-.048 13.333.006 1.775-.127 3.09 1.407 3.182 3.08.82 5.367 2.837 11 7.517 14.182 9.032 5.827 20.365 5.428 30.707 5.59 8.567-.38 18.185-.494 25.177-6.157 3.69-3.23 4.782-8.634 3.785-13.283-1.08-3.925-5.186-5.754-8.712-6.95-18.095-5.724-37.736-3.647-55.656-10.12-7.275-2.57-14.31-7.432-17.105-14.906-3.9-10.58-2.114-23.663 6.097-31.766 8.006-8.06 19.563-11.164 30.55-12.275z"/></g></svg>
